assets/Horse face/Flat/horse_face_flat.svg

<svg width="32" height="32" viewBox="0 0 32 32" fill="none" xmlns="http://www.w3.org/2000/svg">
<path d="M11.5 6.78135C12.7187 5.17841 18.158 4.25233 15.108 7.21233C13.298 8.97233 14.0544 10.8438 11.7344 11.8438C7.82812 13.3281 6.6875 10.1252 7.09375 9.71884C7.5 9.3125 8.41061 10.1824 9.5156 9.71884C10.2024 9.43073 10.2813 8.38429 11.5 6.78135Z" fill="#1C1C1C"/>
<path d="M5.78353 23.3498L14.4035 21.4698C14.5525 21.4338 14.703 21.3929 14.8546 21.3474C11.2948 25.4285 10.848 29.9844 10.848 29.9844H26.178C28.318 29.9844 29.998 27.9023 29.798 25.7623C29.2 19.4435 27.0127 7.81051 18.9693 7.73269C17.3618 6.50811 15.5018 6.21154 14.3835 7.3298C10.9657 10.7476 7.75745 14.3057 5.58902 16.7106C4.91512 17.458 4.34164 18.094 3.89353 18.5798C2.00353 20.6287 2.44353 22.3098 4.11353 23.1598C4.62353 23.4198 5.22353 23.4698 5.78353 23.3498Z" fill="#A56953"/>
<path d="M13.4688 8.2501C18.5625 9.3125 22.625 14.875 14.9062 21.2813C14.9062 21.2813 18.9062 19.6875 21.0625 17.375C22.3333 13.6667 20.6562 2.78126 13.4688 8.2501Z" fill="#6D4534"/>
<path d="M6.82288 23.1231L8.68666 22.7166C8.94774 22.1975 9.05126 21.5935 8.94548 20.9779C8.8976 20.6993 8.63294 20.5122 8.35434 20.5601C8.07574 20.608 7.88869 20.8726 7.93656 21.1512C8.08313 22.0042 7.59738 22.8219 6.82288 23.1231Z" fill="#6D4534"/>
<path d="M22.1998 29.9844H16.1719C15.2111 25.8994 16.7977 22.639 18.2832 19.5861C19.2561 17.5869 20.1856 15.6768 20.3281 13.6823C20.7281 7.95233 16.5881 6.89233 16.5881 6.89233C16.0222 7.0338 16.1271 7.28372 16.2276 7.52309C16.3616 7.84207 16.4877 8.14232 15.0081 8.14232L14.3281 6.69233L13.6406 5.5624C15.2806 5.1124 17.4828 4.73543 20 5.96872C21.3498 6.63002 22.615 7.75618 23.5253 9.15342C24.8566 9.37335 26.3156 10.8476 27.0744 12.804C28.118 12.9424 29.9062 13.7607 29.9062 16.9688V27.7188C29.9062 29.4603 29.0604 29.9142 26.949 29.9882L26.9531 30H22.2031C22.202 29.9948 22.2009 29.9896 22.1998 29.9844Z" fill="#1C1C1C"/>
<path d="M22.7969 29.9844H21.3837C21.0524 28.9835 20.7758 27.3759 20.8126 25.5C20.8694 22.6018 21.4946 20.9953 22.9701 17.2039C23.1173 16.8256 23.2731 16.4253 23.4375 16C24.8875 12.25 22.7292 8.5 21.75 7.25L21.9145 7.27351C24.0729 9.20846 25.5227 12.3377 24.6875 15.5312C24.431 16.5121 24.0898 17.4268 23.7434 18.3553C22.6553 21.2725 21.5168 24.3246 22.7969 29.9844Z" fill="#6D4534"/>
<path d="M27.375 17.2812C27.9045 15.288 27.4407 13.256 26.5559 11.7188H26.5C26.5499 12.0009 26.6154 12.3001 26.6841 12.6141C26.9883 14.0039 27.3561 15.6844 26.7188 17.4688L26.715 17.4793C25.8908 19.787 24.2507 24.379 24.6563 26.9688C24.8708 28.3388 25.2795 29.4485 25.5226 30H26.9531C25.2672 25.2149 26.2952 21.3458 27.3486 17.3806L27.375 17.2812Z" fill="#6D4534"/>
<path d="M15.578 9.01565C13.7188 9.26562 13.1938 8.3125 13.0781 6.5625C12.9625 4.8125 12.9906 4.30127 12.9906 4.30127C12.9906 3.96127 13.4006 3.79127 13.6406 4.03127C13.6406 4.03127 16.9219 6.625 17.0625 7.5625C17.2031 8.5 16.3529 8.91147 15.578 9.01565Z" fill="#A56953"/>
<path d="M12 12C11.4477 12 11 12.4477 11 13V14C11 14.5523 11.4477 15 12 15C12.5523 15 13 14.5523 13 14V13C13 12.4477 12.5523 12 12 12Z" fill="#1C1C1C"/>
<path d="M3.81055 20.3011C4.11055 20.6011 4.61055 20.6011 4.91055 20.3011C5.21055 20.001 5.21055 19.511 4.91055 19.201L3.81055 20.3011Z" fill="#1C1C1C"/>
</svg>

<svg xmlns="http://www.w3.org/2000/svg" width="32" height="32" fill="none"><path fill="#1C1C1C" d="M11.5 6.781c1.219-1.603 6.658-2.529 3.608.431-1.81 1.76-1.054 3.632-3.374 4.632-3.906 1.484-5.046-1.719-4.64-2.125.406-.406 1.317.463 2.422 0 .686-.288.765-1.335 1.984-2.938Z"/><path fill="#A56953" d="m5.784 23.35 8.62-1.88c.149-.036.299-.077.45-.123-3.56 4.081-4.006 8.637-4.006 8.637h15.33c2.14 0 3.82-2.082 3.62-4.222-.598-6.319-2.785-17.951-10.829-18.03-1.607-1.224-3.467-1.52-4.586-.402-3.417 3.418-6.626 6.976-8.794 9.38-.674.748-1.247 1.384-1.695 1.87-1.89 2.049-1.45 3.73.22 4.58.51.26 1.11.31 1.67.19Z"/><path fill="#6D4534" d="M13.469 8.25c5.094 1.063 9.156 6.625 1.437 13.031 0 0 4-1.593 6.156-3.906 1.271-3.708-.406-14.594-7.593-9.125ZM6.823 23.123l1.864-.406c.26-.52.364-1.123.258-1.74a.512.512 0 0 0-1.008.174c.146.853-.34 1.67-1.114 1.972Z"/><path fill="#1C1C1C" d="M22.2 29.984h-6.028c-.96-4.085.626-7.345 2.111-10.398.973-2 1.903-3.91 2.045-5.904.4-5.73-3.74-6.79-3.74-6.79-.566.142-.46.392-.36.631.134.32.26.62-1.22.62l-.68-1.45-.687-1.13c1.64-.45 3.842-.828 6.359.406 1.35.661 2.615 1.787 3.525 3.184 1.332.22 2.79 1.695 3.55 3.651 1.043.138 2.831.957 2.831 4.165v10.75c0 1.741-.846 2.195-2.957 2.27l.004.011h-4.75l-.003-.016Z"/><path fill="#6D4534" d="M22.797 29.984h-1.413c-.332-1-.608-2.608-.571-4.484.056-2.898.682-4.505 2.157-8.296L23.438 16c1.45-3.75-.709-7.5-1.688-8.75l.165.024c2.158 1.934 3.608 5.064 2.773 8.257-.257.981-.598 1.896-.945 2.824-1.088 2.918-2.226 5.97-.946 11.63ZM27.375 17.281c.53-1.993.066-4.025-.82-5.562H26.5c.05.282.115.581.184.895.304 1.39.672 3.07.035 4.855l-.004.01c-.824 2.308-2.464 6.9-2.059 9.49.215 1.37.623 2.48.867 3.031h1.43c-1.686-4.785-.658-8.654.396-12.62l.026-.099Z"/><path fill="#A56953" d="M15.578 9.016c-1.86.25-2.384-.704-2.5-2.454-.115-1.75-.087-2.26-.087-2.26 0-.34.41-.51.65-.27 0 0 3.28 2.593 3.421 3.53.141.938-.71 1.35-1.484 1.454Z"/><path fill="#1C1C1C" d="M12 12a1 1 0 0 0-1 1v1a1 1 0 1 0 2 0v-1a1 1 0 0 0-1-1ZM3.81 20.301c.3.3.8.3 1.1 0 .3-.3.3-.79 0-1.1l-1.1 1.1Z"/></svg>
